local/share/icons/dracula-icons-main/scalable/apps/insomnia.svg

<?xml version="1.0" encoding="UTF-8"?>
<svg xmlns="http://www.w3.org/2000/svg" xmlns:xlink="http://www.w3.org/1999/xlink" width="64" height="64" viewBox="0 0 64 64">
<path fill-rule="nonzero" fill="rgb(36.862745%, 30.980392%, 75.686275%)" fill-opacity="1" d="M 59 32 C 59 46.910156 46.910156 59 32 59 C 17.089844 59 5 46.910156 5 32 C 5 17.089844 17.089844 5 32 5 C 46.910156 5 59 17.089844 59 32 Z M 59 32 "/>
<path fill-rule="nonzero" fill="rgb(100%, 100%, 100%)" fill-opacity="1" d="M 32 14 C 22.058594 14 14 22.058594 14 32 C 14 41.941406 22.058594 50 32 50 C 41.941406 50 50 41.941406 50 32 C 50 22.058594 41.941406 14 32 14 Z M 31.398438 16.398438 C 39.683594 16.394531 46.398438 23.117188 46.398438 31.398438 C 46.398438 39.683594 39.683594 46.398438 31.398438 46.398438 C 23.117188 46.398438 16.394531 39.683594 16.398438 31.398438 C 16.402344 30.640625 16.472656 29.882812 16.59375 29.132812 C 18.113281 30.214844 19.933594 30.800781 21.800781 30.800781 C 26.769531 30.800781 30.804688 26.769531 30.800781 21.800781 C 30.800781 19.929688 30.210938 18.105469 29.121094 16.585938 C 29.875 16.464844 30.636719 16.398438 31.398438 16.398438 Z M 31.398438 16.398438 "/>
</svg>

<svg width="64" height="64" version="1.1" viewBox="0 0 64 64" xmlns="http://www.w3.org/2000/svg">
 <circle cx="32" cy="32" r="27" fill="#5e4fc1" stroke-width="1.1739"/>
 <path d="m32 14c-9.9412 0-18 8.0588-18 18s8.0588 18 18 18 18-8.0588 18-18-8.0588-18-18-18zm-0.6 2.4c8.2843-0.0036 15 6.7157 15 15s-6.7157 15-15 15-15.006-6.7157-15-15c5.46e-4 -0.76006 0.07074-1.5185 0.19219-2.2687 1.5209 1.083 3.3408 1.668 5.2078 1.6687 4.9705 0.0024 9.0029-4.0295 9-9-0.0011-1.8704-0.59045-3.6931-1.6781-5.2148 0.75356-0.11952 1.5151-0.18485 2.2781-0.18516z" fill="#fff" stroke-width="1.2" style="paint-order:normal"/>
</svg>
